X: 324
T:The Creel of Turf
T:Unknown Jig 159C
M:6/8
L:1/8
R:Jig
Z:Kevin Gow
K:G
EBB BAG|FAA AFD|EBB B^cd|AGF E2D|EBB BAG|FAA AB^c|!
d2B BcB|1AGF E2D:||2AGF E2A||:Bee ede|fdd dBA|Bee ede|!
fdd d2A|Bee ede|fdd dBA|BcB BcB|1AGF E2A:||2AGF E3||

